X:1
T:Briesen, 866.866
T:Briesen, 866.866
T:Johann Anastasius Freylinghausen, 1704
T:Public Domain Courtesy of the Cyber Hymnal™
C:Johann Anastasius Freylinghausen, 1704
Z:Public Domain
Z:Courtesy of the Cyber Hymnal™
%%score ( 1 2 ) ( 3 4 )
L:1/8
Q:1/4=108
M:4/4
K:D
V:1 treble 
V:2 treble 
V:3 bass 
V:4 bass 
V:1
 [DF]2 D2 [DA]2 [DB]2 | [CA]2 [CG]2 [DF]2 D2 | [DB]2 [Ee]2 [Ec]4 | [DB]2 [^DA]2 [E^G]4 | %4
 [EA]2 [DB]2 [Ec]2 [Fd]2 | ([Ec]2 [DB]2) [CA]4 | [DB]2 [Gc]2 [Fd]2 [DA]2 | [DB]2 [CA]2 [DF]2 D2 | %8
 [DF]2 [DF]2 [CE]4 | [DA]2 [DA]2 [DB]4 | [DB]2 [DB]2 [DA]2 [Dd]2 | ([Ed]2 c2) [Fd]4 |] %12
V:2
 x2 D2 x4 | x6 D2 | x8 | x8 | x8 | x8 | x8 | x6 D2 | x8 | x8 | x8 | x2 (EG) x4 |] %12
V:3
 [D,A,]2 A,2 [D,F,]2 [G,,G,]2 | [A,,E,]2 [A,,A,]2 [D,A,]2 [D,F,]2 | G,2 [E,^G,]2 [A,,A,]4 | %3
 [D,F,]2 [B,,B,]2 [E,B,]4 | [C,A,]2 [B,,^G,]2 [A,,A,]2 [D,A,]2 | (A,2 ^G,2) [A,,A,]4 | %6
 G,2 [E,G,]2 [D,A,]2 [F,,A,]2 | [G,,G,]2 (E,A,) [D,A,]2 [D,F,]2 | [D,A,]2 [F,A,]2 G,4 | %9
 [F,A,]2 [D,F,]2 G,4 | G,2 [G,,G,]2 [D,F,]2 [F,A,]2 | ([G,B,]2 A,2) [D,A,]4 |] %12
V:4
 x2 (F,E,) x4 | x8 | ^G,2 x6 | x8 | x8 | E,4 x4 | G,2 x6 | x2 A,,2 x4 | x4 G,4 | x4 G,4 | G,2 x6 | %11
 x2 A,2 x4 |] %12

